Numix-uTouch/48x48/apps/2048.svg

<?xml version="1.0" encoding="UTF-8" standalone="no"?>
<svg
   xmlns:dc="http://purl.org/dc/elements/1.1/"
   xmlns:cc="http://creativecommons.org/ns#"
   xmlns:rdf="http://www.w3.org/1999/02/22-rdf-syntax-ns#"
   xmlns:svg="http://www.w3.org/2000/svg"
   xmlns="http://www.w3.org/2000/svg"
   xmlns:sodipodi="http://sodipodi.sourceforge.net/DTD/sodipodi-0.dtd"
   xmlns:inkscape="http://www.inkscape.org/namespaces/inkscape"
   width="48"
   height="48"
   viewBox="0 0 48 48"
   id="svg2"
   version="1.1"
   inkscape:version="0.48.4 r9939"
   sodipodi:docname="2048.svg">
  <metadata
     id="metadata25">
    <rdf:RDF>
      <cc:Work
         rdf:about="">
        <dc:format>image/svg+xml</dc:format>
        <dc:type
           rdf:resource="http://purl.org/dc/dcmitype/StillImage" />
        <dc:title />
      </cc:Work>
    </rdf:RDF>
  </metadata>
  <sodipodi:namedview
     pagecolor="#ffffff"
     bordercolor="#666666"
     borderopacity="1"
     objecttolerance="10"
     gridtolerance="10"
     guidetolerance="10"
     inkscape:pageopacity="0"
     inkscape:pageshadow="2"
     inkscape:window-width="1069"
     inkscape:window-height="714"
     id="namedview23"
     showgrid="true"
     inkscape:zoom="3.4766083"
     inkscape:cx="15.90999"
     inkscape:cy="14.893789"
     inkscape:window-x="120"
     inkscape:window-y="80"
     inkscape:window-maximized="0"
     inkscape:current-layer="svg2">
    <inkscape:grid
       type="xygrid"
       id="grid2991" />
  </sodipodi:namedview>
  <defs
     id="defs4">
    <radialGradient
       cx="148.004"
       cy="160"
       gradientTransform="matrix(.1831 0 0 .1831 -3.10029 -5.29688)"
       id="radial0"
       r="128"
       gradientUnits="userSpaceOnUse">
      <stop
         offset="0"
         style="stop-color:#f2c900;stop-opacity:1;"
         id="stop7" />
      <stop
         offset="1"
         style="stop-color:#db9600;stop-opacity:1;"
         id="stop9" />
    </radialGradient>
  </defs>
  <path
     style="fill:url(#radial0)"
     d="M 47.4375 11.546875 L 47.4375 36.453125 C 47.4375 46.703125 47.4375 47.4375 36.453125 47.4375 L 11.550781 47.4375 C 0.5625 47.4375 0.5625 46.703125 0.5625 36.453125 L 0.5625 11.546875 C 0.5625 1.296875 0.5625 0.5625 11.550781 0.5625 L 36.453125 0.5625 C 47.4375 0.5625 47.4375 1.296875 47.4375 11.546875 Z "
     id="path11" />
  <path
     style="fill:#fff;fill-opacity:.051"
     d="M 38.265625 47.4375 C 40.808594 47.425781 42.644531 47.355469 43.976562 46.996094 L 39.746094 39.746094 L 35.261719 47.4375 L 36.453125 47.4375 C 37.09375 47.4375 37.695312 47.4375 38.265625 47.4375 Z M 39.746094 39.746094 L 34.621094 30.957031 L 29.492188 39.746094 Z M 39.746094 39.746094 L 47.398438 39.746094 C 47.429688 38.773438 47.4375 37.683594 47.4375 36.449219 L 47.4375 35.351562 L 44.875 30.957031 Z M 44.875 30.957031 L 39.746094 22.167969 L 34.621094 30.957031 Z M 44.875 30.957031 L 47.4375 30.957031 L 47.4375 26.5625 Z M 34.621094 30.957031 L 29.492188 22.167969 L 24.367188 30.957031 Z M 24.367188 30.957031 L 19.238281 39.746094 L 29.492188 39.746094 Z M 24.367188 30.957031 L 19.238281 22.167969 L 14.113281 30.957031 Z M 14.113281 30.957031 L 8.984375 39.746094 L 19.238281 39.746094 Z M 14.113281 30.957031 L 8.984375 22.167969 L 3.859375 30.957031 Z M 3.859375 30.957031 L 0.5625 36.605469 C 0.5625 37.773438 0.574219 38.816406 0.601562 39.746094 L 8.984375 39.746094 Z M 3.859375 30.957031 L 0.5625 25.308594 L 0.5625 30.957031 Z M 8.984375 39.746094 L 4.671875 47.140625 C 6.269531 47.433594 8.480469 47.4375 11.546875 47.4375 L 13.472656 47.4375 Z M 8.984375 22.167969 L 3.859375 13.378906 L 0.5625 19.027344 L 0.5625 22.167969 Z M 8.984375 22.167969 L 19.238281 22.167969 L 14.113281 13.378906 Z M 14.113281 13.378906 L 8.984375 4.589844 L 3.859375 13.378906 Z M 14.113281 13.378906 L 24.367188 13.378906 L 19.238281 4.589844 Z M 19.238281 4.589844 L 16.886719 0.5625 L 11.546875 0.5625 C 11.472656 0.5625 11.410156 0.5625 11.335938 0.5625 L 8.984375 4.589844 Z M 19.238281 4.589844 L 29.492188 4.589844 L 27.140625 0.5625 L 21.589844 0.5625 Z M 29.492188 4.589844 L 39.746094 4.589844 L 37.394531 0.5625 C 37.082031 0.5625 36.785156 0.5625 36.453125 0.5625 L 31.84375 0.5625 Z M 29.492188 4.589844 L 24.367188 13.378906 L 34.621094 13.378906 Z M 34.621094 13.378906 L 44.875 13.378906 L 39.746094 4.589844 Z M 34.621094 13.378906 L 29.492188 22.167969 L 39.746094 22.167969 Z M 39.746094 22.167969 L 47.4375 22.167969 L 47.4375 17.773438 L 44.875 13.378906 Z M 44.875 13.378906 L 47.4375 13.378906 L 47.4375 11.546875 C 47.4375 10.632812 47.429688 9.796875 47.414062 9.023438 Z M 29.492188 22.167969 L 24.367188 13.378906 L 19.238281 22.167969 Z M 39.746094 4.589844 L 47.054688 4.589844 C 46.5 1.832031 45.167969 0.960938 42.023438 0.6875 Z M 8.984375 4.589844 L 6.679688 0.636719 C 3.019531 0.84375 1.539062 1.632812 0.945312 4.589844 Z M 3.859375 13.378906 L 0.621094 7.824219 C 0.578125 8.898438 0.5625 10.132812 0.5625 11.546875 L 0.5625 13.378906 Z M 19.238281 39.746094 L 14.753906 47.4375 L 23.726562 47.4375 Z M 29.492188 39.746094 L 25.007812 47.4375 L 33.980469 47.4375 Z M 2.59375 46.367188 L 0.992188 43.621094 C 1.285156 44.9375 1.777344 45.800781 2.59375 46.367188 Z "
     id="path13" />
  <path
     style="fill:#f9f9f9;fill-opacity:1"
     d="m 23,22 -6,0 0,-1 2.815287,-2.891758 c 0.747342,-0.758996 1.239911,-1.300529 1.477707,-1.624601 0.237787,-0.324062 0.416131,-0.6396 0.535032,-0.946617 0.118891,-0.307005 0.178339,-0.637468 0.178344,-0.99139 -5e-6,-0.498886 -0.150748,-0.893309 -0.45223,-1.183272 -0.30149,-0.294211 -0.719749,-0.44132 -1.254777,-0.441328 -0.386415,8e-6 -0.753718,0.06397 -1.10191,0.19188 -0.343954,0.127928 -0.72824,0.360319 -1.152867,0.697171 l -0.56051,-0.722754 c 0.857748,-0.71635 1.79193,-1.074529 2.802548,-1.074538 0.874731,9e-6 1.560505,0.226002 2.057325,0.677982 0.49681,0.447733 0.745217,1.051095 0.745223,1.810087 -6e-6,0.592708 -0.165611,1.179013 -0.496815,1.758917 C 21.281046,18.003359 20.051252,19.246531 18.532486,21 l 0.0719,0 L 23,21"
     id="path22"
     inkscape:connector-curvature="0" />
  <path
     style="fill:#f9f9f9;fill-opacity:1"
     d="m 31.000001,16.809841 c -7e-6,1.616075 -0.165612,3.196721 -0.67516,3.994096 C 29.819528,21.601313 29.044581,22 28,22 26.997874,22 26.235667,21.592688 25.713376,20.778256 25.191082,19.959562 25,18.577699 25,17 25,15.371142 25.093418,13.972128 25.598727,13.183272 26.104033,12.394433 26.874733,12.00001 27.910829,12 c 1.010611,10e-6 1.777065,0.41149 2.299363,1.234441 0.526533,0.822967 0.789802,2.014766 0.789809,3.5754 M 26,16.999999 c -2e-6,1.360233 0.159233,2.535386 0.477707,3.157933 0.31847,0.618288 0.8259,0.92743 1.522293,0.92743 0.704879,0 1.214433,-0.313407 1.528663,-0.940222 C 29.847129,19.514066 29.999995,18.343177 30,17 c -5e-6,-1.343167 -0.242043,-2.516188 -0.560508,-3.138745 -0.31423,-0.626806 -0.823784,-0.940213 -1.528663,-0.940221 -0.696394,8e-6 -1.203824,0.309151 -1.522293,0.927429 C 26.070063,14.462492 25.999998,15.639776 26,17"
     id="path24"
     inkscape:connector-curvature="0" />
  <path
     style="fill:#f9f9f9;fill-opacity:1"
     inkscape:connector-curvature="0"
     id="path26"
     d="m 24,34 -0.999999,0 0,2 L 22,36 l 0,-2 -5,0 0,-1 4.5,-7 1.500001,0 0,7 L 24,33 l 1e-6,1 M 22,33 l 0,-6 -4,6" />
  <path
     style="fill:#f9f9f9;fill-opacity:1"
     inkscape:connector-curvature="0"
     id="path28"
     d="m 28.001797,26 c 4.002395,0 3.685573,4.3176 0.885882,4.9215 0.756286,0.3625 1.293761,0.7441 1.612431,1.1449 0.318656,0.3966 0.477985,0.8571 0.477992,1.3816 -7e-6,0.776 -0.269808,1.3964 -0.809401,1.8612 C 29.629094,35.7697 28.889799,36 27.950813,36 26.956584,36 26.191796,35.7825 25.656445,35.3476 25.121092,34.9084 25,34.288 25,33.4863 25,32.4161 25.503487,31.5824 26.803629,30.9855 24.449345,30.3768 23.999402,26 28.001797,26 m -2.001198,7.5119 c -2e-6,0.5117 0.07436,0.9104 0.427009,1.1961 0.356898,0.2857 0.856136,0.4285 1.497711,0.4285 0.633071,0 1.125936,-0.1492 1.478592,-0.4477 0.352647,-0.2985 0.599079,-0.7078 0.599084,-1.228 -5e-6,-0.4137 -0.235814,-0.7804 -0.567218,-1.1002 -0.331413,-0.324 -0.909253,-0.6374 -1.733521,-0.9402 -0.633078,0.2729 -1.091951,0.5757 -1.37662,0.9082 -0.284673,0.3284 -0.325039,0.7228 -0.325037,1.1833 M 27.98905,26.8635 C 25.171632,27 25.247426,30 27.96356,30.5122 30.711203,30 30.656263,27 27.98905,26.8635" />
</svg>

<svg xmlns="http://www.w3.org/2000/svg" viewBox="0 0 48 48"><defs><radialGradient id="0" cx="24" cy="24" r="23.437" gradientUnits="userSpaceOnUse"><stop stop-color="#ffd401"/><stop offset="1" stop-color="#dfb400"/></radialGradient></defs><path d="m 47.44 11.547 l 0 24.906 c 0 10.25 0 10.984 -10.984 10.984 l -24.902 0 c -10.988 0 -10.988 -0.734 -10.988 -10.984 l 0 -24.906 c 0 -10.25 0 -10.984 10.988 -10.984 l 24.902 0 c 10.984 0 10.984 0.734 10.984 10.984" fill="url(#0)"/><path d="m 11 11 l 0 26 l 26 0 l 0 -26 m -25 1 l 24 0 l 0 24 l -24 0 m 0 -24" fill="#fff"/><path d="m 22 33 l -1 0 l 0 2 l -2 0 l 0 -2 l -4 0 l 0 -2 l 3.5 -6 l 2.5 0 l 0 6 l 1 0 l 0 2 m -3 -2 l 0 -4 l -2 4" fill="#fff"/><path d="m 21 23 l -6 0 l 0 -2 c 3.117 -3.117 4.891 -4.234 3.539 -5.582 c -0.629 -0.629 -1.336 -0.113 -2.539 0.582 l -1 -2 c 1.77 -1.172 3.695 -1.324 5 0 c 2.691 2.73 -1.125 5.367 -2.559 7 c 1.504 0 2.055 0 3.559 0" fill="#fff"/><path d="m 30 25 c -1.656 0 -3 1.344 -3 3 c 0 0.773 0.52 1.469 1 2 c -0.48 0.531 -1 1.227 -1 2 c 0 1.656 1.344 3 3 3 c 1.656 0 3 -1.344 3 -3 c 0 -0.773 -0.52 -1.469 -1 -2 c 0.48 -0.531 1 -1.227 1 -2 c 0 -1.656 -1.344 -3 -3 -3 m 0 2 c 0.551 0 1 0.449 1 1 c 0 0.551 -0.664 1 -1 1 c -0.336 0 -1 -0.449 -1 -1 c 0 -0.551 0.449 -1 1 -1 m 0 4 c 0.367 0 1 0.449 1 1 c 0 0.551 -0.449 1 -1 1 c -0.551 0 -1 -0.449 -1 -1 c 0 -0.551 0.633 -1 1 -1 m 0 0" fill="#fff"/><path d="m 38.27 47.44 c 2.543 -0.012 4.379 -0.082 5.711 -0.441 l -4.23 -7.25 -4.484 7.691 1.191 0 c 0.641 0 1.242 0 1.813 0 z m 1.48 -7.691 -5.125 -8.789 -5.129 8.789 z m 0 0 7.652 0 c 0.031 -0.973 0.039 -2.063 0.039 -3.297 l 0 -1.098 -2.563 -4.395 z m 5.129 -8.789 -5.129 -8.789 -5.125 8.789 z m 0 0 2.563 0 0 -4.395 z m -10.254 0 -5.129 -8.789 -5.125 8.789 z m -10.254 0 -5.129 8.789 10.254 0 z m 0 0 -5.129 -8.789 -5.125 8.789 z m -10.254 0 -5.129 8.789 10.254 0 z m 0 0 -5.129 -8.789 -5.125 8.789 z m -10.254 0 -3.297 5.648 c 0 1.168 0.012 2.211 0.039 3.141 l 8.383 0 z m 0 0 -3.297 -5.648 0 5.648 z m 5.125 8.789 -4.313 7.395 c 1.598 0.293 3.809 0.297 6.879 0.297 l 1.922 0 z m 0 -17.578 -5.125 -8.789 -3.297 5.648 0 3.141 z m 0 0 10.254 0 -5.125 -8.789 z m 5.129 -8.789 -5.129 -8.789 -5.125 8.789 z m 0 0 10.254 0 -5.129 -8.789 z m 5.125 -8.789 -2.352 -4.03 -5.336 0 c -0.078 0 -0.141 0 -0.215 0 l -2.352 4.03 z m 0 0 10.254 0 -2.352 -4.03 -5.551 0 z m 10.254 0 10.254 0 l -2.352 -4.03 c -0.313 0 -0.609 0 -0.941 0 l -4.609 0 z m 0 0 -5.125 8.789 10.254 0 z m 5.129 8.789 10.254 0 -5.129 -8.789 z m 0 0 -5.129 8.789 10.254 0 z m 5.125 8.789 7.691 0 0 -4.395 -2.563 -4.395 z m 5.129 -8.789 2.563 0 0 -1.832 c 0 -0.914 -0.008 -1.75 -0.023 -2.523 z m -15.383 8.789 -5.125 -8.789 -5.129 8.789 z m 10.254 -17.578 7.309 0 c -0.555 -2.758 -1.887 -3.629 -5.03 -3.902 z m -30.762 0 l -2.305 -3.953 c -3.66 0.207 -5.141 0.996 -5.734 3.953 z m -5.125 8.789 l -3.238 -5.555 c -0.043 1.074 -0.059 2.309 -0.059 3.723 l 0 1.832 z m 15.379 26.367 -4.484 7.691 8.973 0 z m 10.254 0 -4.484 7.691 8.973 0 z m -26.898 6.621 -1.602 -2.746 c 0.293 1.316 0.785 2.18 1.602 2.746 z" fill="#fff" fill-opacity="0.086"/></svg>
